X:62
T:Valse Suzanne
C:Laurence Beaudry
N:©Laurence Beaudry, Août 2009
Z:robin.beech@mcgill.ca
N:Avec tout mon amiti\'e, Laurence
M:3/4
L:1/4
K:D
A,&gt;DF | AFB | AFB | AFD | A,&gt;DF | AFB | ABA | G3 | 
E&gt;FG | BGG | cGG | BGG | E&gt;FG | BGB | dcB  F3 |
A,&gt;DF | AFB | AFd | AFD | A,&gt;DF | A2d | dc=c | B3 |
G&gt;Bd | gdB | F&gt;Ad | fdA | E&gt;Ac | eca | gfe | d3 ||
f&gt;gf | afd | AFd | AFA | f&gt;gf | afb | faf | g3 |
E&gt;FG | BGG | cGG | BGF | E&gt;FG | edc | BAB | F3 |
f&gt;gf | afb | faf | afd | Adf | a2b | =c'&gt;d'c' | b3 |
G,B,D | GBd | cBe | B2A | E&gt;FG | Bcd | edc | d3 |]

